images/Path.svg

<svg width="7" height="14" viewBox="0 0 7 14" fill="none" xmlns="http://www.w3.org/2000/svg">
<path d="M6.86724 6.6206L1.63287 1.17612C1.46137 0.997847 1.18884 1.00291 1.02396 1.18769C0.859217 1.37244 0.864792 1.66698 1.03631 1.84539L5.95912 6.96582L1.21784 12.2549C1.05267 12.4392 1.05737 12.7336 1.22845 12.9125C1.31428 13.0022 1.42544 13.0459 1.5358 13.0439C1.64589 13.042 1.75502 12.9948 1.83754 12.9028L6.87873 7.27912C6.95828 7.19058 7.00171 7.07121 6.99955 6.94766C6.9974 6.82412 6.9497 6.70648 6.86724 6.6206Z" fill="black"/>
</svg>

<svg width="7" height="14" fill="none" xmlns="http://www.w3.org/2000/svg"><path d="M6.867 6.62L1.633 1.177a.409.409 0 00-.609.012.492.492 0 00.012.657l4.923 5.12-4.741 5.29a.492.492 0 00.01.657c.086.09.197.134.308.132a.42.42 0 00.302-.141l5.04-5.624A.484.484 0 007 6.948a.485.485 0 00-.133-.327z" fill="#000"/></svg>
